X:WFS 13-12 25
T:Wisbech
S:Frankie
M:6/8
K:Em
[P:A] E2G B2E | D2F A2E-|E2F G2A | B3 d3 | c2d e2c | d2B G2B |1,3 A2B A2G | F2G A2F :|2,4 A3 G2F | E6 :|
[P:B] e2f gfe | d2g c2g | B2d B2G |1 ABA G3 :|2 A3 A3 :|3 ABA G2A | B2A G2F | E2G ABc | B2A G2F | E6 :|

%%text Rochdale Coconut Dance (WFS 13-12 26 = WFS 13-11 19), into Tip Top Polka (WFS 13-12 27 = WFS 13-11 20)

%%text Ffiddle-Ffaddle (WFS 13-12 28 = WFS 13-07 14), into L.N.B. Polka (WFS 13-12 29 = WFS 13-07 15)

